!!!OTL: Martinslied des 14. Jahrhunderts.
!!!ARE: Europa, Mitteleuropa, Deutschland
!!!SCT: A0349
!!!TXL: @@GMH
!!!YEM: Copyright 1995, estate of Helmut Schaffrath.
**kern	**text
*M4/4yy	*
*clefC4	*
*k[]	*
*e:phr	*
!LO:TX:a:t=phryg.	!
{2E	Sei
=1	=1
4F	wil-
4E	-li-
4F	-ko-
4F	-men,
=2	=2
2D	her
*lig	*
4E	Mar-
4F	.
*Xlig	*
=3	=3
*lig	*
2E	-tein!
2D	.
*Xlig	*
=4||	=4||
4F	lie-
4F	-ber
4A/	ʒar-
4A/	-ter
=5	=5
4G	trawter
4G	.
4F	her-
4F	-re
=6	=6
2E;}	mein!
{2e	Schenck
=7	=7
*lig	*
4c	ein
4B	.
*Xlig	*
4c	vns
4d	den
=8	=8
2e	wein,
4d	ſun-
4e	-der
=9	=9
*lig	*
4d	pein,
4c	.
4B	.
4c	.
*Xlig	*
=10||	=10||
4d	daʒ
4d	wir
4d	im-
4d	-mer
=11	=11
2c	ſä-
2A	-lig
=12	=12
2c	müſ-
2A	-ſen
=13	=13
!LO:TX:a:t=+	!
2F}	ſein;
{4A/	.
4G	.
=14	=14
4F	.
4E	.
2D	.
=15||	=15||
4F	ſchenk
4F	vns
4F	ein
4G	ein
=16	=16
4A/	gu-
4A/	-tes
4G	tren-
4F	-ke-
=17	=17
*lig	*
2E	-lein,
2D}	.
*Xlig	*
=18||	=18||
{4F	daʒ
4F	vns
4F	vnſ-
4F	-re
=19	=19
4F	wän-
4F	-ge-
2E	-lein
=20	=20
*lig	*
4A	wer-
4c	.
*Xlig	*
2A	-den
=21	=21
*lig	*
2G	ſein!
2F	.
=22	=22
2E/ll;}	.
*Xlig	*
==	==
!!!GTL: Trink. und Zechlieder, incl. Fastnacht- u. Martinslieder
!!!AGN: Romanze, Ballade, Lied
!! Lambacher Hs. (15. Jh.) fol 169.
!!!ONB: ESAC (Essen Associative Code) Database: ALTDEU
!!!AMT: simple quadruple
!!!AIN: vox
!!!EED: Helmut Schaffrath
!!!EEV: 1.0
!!@@COMMENT: "Lambacher Hs. Anfang des 15. Jahrh. fol. 169. Original in Choralnoten, ohne Mensur,
!! durchgehend schwarz [<>] mit vielen Ligaturen und abwechselnd im Tenor- und Altschlüssel.
!! Ohne Zwang habe ich die Melodie taktisch hergestellt, dabeinur eine einzige Notendauer bei + geändert"
!!@@END:
!!!RDF**kern: l = terminal long
!!!AMD: Phrygian
!!!URL-scan: https://rosdok.uni-rostock.de/mcrviewer/recordIdentifier/rosdok_ppn738218359/iview2/phys_0494.iview2?x=-495.6391625615763&y=682.1591133226175&scale=0.4629418472063854&rotation=0&layout=singlePageLayout&logicalDiv=log_0013
!!!ENC: Anna Maria Matuszewska
!!!EEV: 2024/13/03
*-	*-
